mobile/24/svg/shield-slash-24.svg

<svg width="24" height="24" viewBox="0 0 24 24" fill="none" xmlns="http://www.w3.org/2000/svg">
<path d="M8.692 5.32703L11.328 3.90003C11.514 3.79903 11.718 3.75003 11.922 3.75003C12.126 3.75003 12.329 3.80003 12.515 3.89903L18.689 7.22103C19.169 7.48003 19.425 8.01303 19.326 8.54903L18.621 12.342C18.468 13.165 18.232 13.903 17.933 14.566L19.24 15.873C19.743 14.939 20.118 13.867 20.342 12.662L21.047 8.86803C21.286 7.58103 20.672 6.30003 19.519 5.68003L13.345 2.35803C12.452 1.87703 11.387 1.88003 10.496 2.36103L7.401 4.03503L8.692 5.32703Z" fill="black"/>
<path fill-rule="evenodd" clip-rule="evenodd" d="M18.4088 17.1714L21.9997 20.7622L20.7622 21.9997L17.2967 18.5342C16.1632 19.7822 14.8523 20.8439 13.466 21.619C13.0149 21.871 12.5079 21.997 12.002 21.997C11.496 21.997 10.989 21.871 10.538 21.619C8.45895 20.458 6.54595 18.654 5.14995 16.54C4.43995 15.465 3.93995 14.156 3.66295 12.652L2.95395 8.80003C2.72121 7.54105 3.30724 6.28496 4.41468 5.65212L2.00024 3.23768L3.23768 2.00024L6.02009 4.78266L6.02495 4.78003L7.31595 6.07103L7.31109 6.07366L17.1449 15.9074L17.148 15.903L18.412 17.167L18.4088 17.1714ZM16.0505 17.2879L5.70519 6.94262L5.30895 7.15703C4.83095 7.41603 4.57595 7.94903 4.67395 8.48303L5.38295 12.335C5.61795 13.607 6.02995 14.697 6.60995 15.575C7.85395 17.461 9.55195 19.065 11.39 20.092C11.767 20.301 12.235 20.301 12.612 20.092C13.8596 19.3938 15.0347 18.4262 16.0505 17.2879Z" fill="black"/>
</svg>

<svg width="24" height="24" fill="none" xmlns="http://www.w3.org/2000/svg"><path d="M8.692 5.327 11.328 3.9a1.26 1.26 0 0 1 1.187-.001l6.174 3.322c.48.259.736.792.637 1.328l-.705 3.793a9.696 9.696 0 0 1-.688 2.224l1.307 1.307c.503-.934.878-2.006 1.102-3.211l.705-3.794a2.988 2.988 0 0 0-1.528-3.188l-6.174-3.322a2.993 2.993 0 0 0-2.849.003L7.401 4.035l1.291 1.292z" fill="#000"/><path fill-rule="evenodd" clip-rule="evenodd" d="m18.409 17.171 3.59 3.591L20.763 22l-3.465-3.466c-1.134 1.248-2.445 2.31-3.831 3.085a3.005 3.005 0 0 1-1.464.378 3.005 3.005 0 0 1-1.464-.378c-2.08-1.161-3.992-2.965-5.388-5.079-.71-1.075-1.21-2.384-1.487-3.888L2.954 8.8a2.991 2.991 0 0 1 1.46-3.148L2 3.238 3.238 2 6.02 4.783l.005-.003 1.29 1.291-.004.003 9.834 9.833.003-.004 1.264 1.264-.003.004zm-2.358.117L5.704 6.943l-.396.214a1.248 1.248 0 0 0-.635 1.326l.709 3.852c.235 1.272.647 2.362 1.227 3.24 1.244 1.886 2.942 3.49 4.78 4.517a1.27 1.27 0 0 0 1.222 0c1.248-.698 2.423-1.666 3.438-2.804z" fill="#000"/></svg>
